packages/katcn/src/icons/svg/trash-solid.svg

<svg width="24" height="24" viewBox="0 0 24 24" fill="none" xmlns="http://www.w3.org/2000/svg">
<path d="M22 4.60001H2C1.4 4.60001 1 5.00001 1 5.60001C1 6.20001 1.4 6.60001 2 6.60001H3.4V18.3C3.4 20.9 5.4 23 8 23H16C18.6 23 20.6 20.9 20.6 18.4V6.60001H22C22.6 6.60001 23 6.20001 23 5.60001C23 5.00001 22.6 4.60001 22 4.60001Z" fill="black"/>
<path d="M8.40002 3H15.7C16.3 3 16.7 2.6 16.7 2C16.7 1.4 16.3 1 15.7 1H8.40002C7.80002 1 7.40002 1.4 7.40002 2C7.40002 2.6 7.80002 3 8.40002 3Z" fill="black"/>
<path d="M9.29999 18.5C8.69999 18.5 8.29999 18.1 8.29999 17.5V10.2C8.29999 9.6 8.69999 9.2 9.29999 9.2C9.89999 9.2 10.3 9.6 10.3 10.2V17.5C10.3 18 9.79999 18.5 9.29999 18.5Z" fill="white"/>
<path d="M14.7 18.5C14.1 18.5 13.7 18.1 13.7 17.5V10.2C13.7 9.6 14.1 9.2 14.7 9.2C15.3 9.2 15.7 9.6 15.7 10.2V17.5C15.7 18 15.3 18.5 14.7 18.5Z" fill="white"/>
</svg>

<svg xmlns="http://www.w3.org/2000/svg" fill="none" viewBox="0 0 24 24"><path fill="#000" d="M22 4.6H2c-.6 0-1 .4-1 1s.4 1 1 1h1.4v11.7c0 2.6 2 4.7 4.6 4.7h8c2.6 0 4.6-2.1 4.6-4.6V6.6H22c.6 0 1-.4 1-1s-.4-1-1-1M8.4 3h7.3c.6 0 1-.4 1-1s-.4-1-1-1H8.4c-.6 0-1 .4-1 1s.4 1 1 1"/><path fill="#fff" d="M9.3 18.5c-.6 0-1-.4-1-1v-7.3c0-.6.4-1 1-1s1 .4 1 1v7.3c0 .5-.5 1-1 1m5.4 0c-.6 0-1-.4-1-1v-7.3c0-.6.4-1 1-1s1 .4 1 1v7.3c0 .5-.4 1-1 1"/></svg>
